X:1
T:Reynard on the mountain high
M:2/4
L:1/8
Q:"Lento"
N:”County Tyrone, from Lord Dunraven, Jan. 1860”
S:Stanford/Petrie (1905), No. 644
Z:AK/Fiddler’s Companion
K:G
B/>c/ | d>e c/B/A/G/ | E<G {E}DB, | D>E GA/B/ | c3 B/c/ |
d>e c/B/A/G/ | E<G DB, | D>E GG | G3 ||
d/B/ | (G>A G/A/B/c/) | d>e d/<g/ z/e/ | d>B G/B/d/B/ | c2 zB/c/ |
(d>e c/B/A/G/) | {G}G>E DB, | D>E GG | G3 ||

